X:1
T:Chișinău, LM
T:Chișinău, LM
T:M. F. Varney, 1878
T:Public Domain Courtesy of the Cyber Hymnal™
C:M. F. Varney, 1878
Z:Public Domain
Z:Courtesy of the Cyber Hymnal™
%%score ( 1 2 ) ( 3 4 )
L:1/8
Q:1/4=75
M:4/8
K:D
V:1 treble 
V:2 treble 
V:3 bass 
V:4 bass 
V:1
 ([DF]/[EG]/) | [FA][FA][FA][Fd] | (c/B/) ([FA]/[EG]/)[DF][DF] | E[DF][CG][DF] | %4
 [DF][DE]!fermata![CE] ([DF]/[EG]/) | [FA][FA][FA][Fd] | (c/B/) ([FA]/[EG]/)[DF][DF] | %7
 [DE][DB] (A/F/) (D/E/) | [DF][CE] !fermata!D4 |] %9
V:2
 x | x4 | G x3 | E x3 | x4 | x4 | G x3 | x2 DD | x2 D4 |] %9
V:3
 [D,A,] | [D,D][D,D][D,D][D,A,] | [A,,A,][A,,A,][D,A,][D,A,] | [C,A,][D,A,][E,A,][D,A,] | %4
 [E,^G,][E,G,]!fermata![A,,A,][D,A,] | [D,D][D,D][D,D][D,A,] | [A,,A,][A,,A,][D,A,][D,A,] | %7
 [G,B,][G,B,][F,D][G,B,] | A,[A,,G,] !fermata![D,F,]4 |] %9
V:4
 x | x4 | x4 | x4 | x4 | x4 | x4 | x4 | A, x5 |] %9

